X:281
T: ICH BETE AN DIE MACHT DER LIEBE
N: B0759
O: Europa, Mitteleuropa, Deutschland
R: geistliches Volks - Lied, religioes
M: 3/4
L: 1/4
K: C
G | E2F | G2c | dcB | c2G
AcA | G2E | GFE | D2
G | E2F | G2c | dcB | c2G
AcA | G2E | GFE | D2
G | B2G | c2G | edc | c2B
cBA | G2E | AGF | E3 | D3 | C2

